src/images/brands/plainadmin.svg

<svg fill="none" height="33" viewBox="0 0 200 33" width="200" xmlns="http://www.w3.org/2000/svg" xmlns:xlink="http://www.w3.org/1999/xlink"><clipPath id="a"><path d="m0 0h200v33h-200z"/></clipPath><g clip-path="url(#a)"><path d="m42.1741 27.1058h4.045v-7.3951h4.2813c5.171 0 7.8816-3.0442 7.8816-7.3116 0-4.26748-2.7801-7.25608-7.8816-7.25608h-8.3402zm4.045-10.6617v-7.92327h3.7114c3.0303 0 4.3787 1.59857 4.3787 3.93387s-1.3901 3.9894-4.3509 3.9894zm19.4607-11.24548h-3.8922v21.90718h3.9617zm8.8963 22.24078c.9864.0979 1.9803-.0882 2.8644-.5364.8842-.4482 1.6218-1.1399 2.1258-1.9935h.1251v2.2519h3.7949v-11.0509c0-4.3369-3.6142-5.6436-6.8113-5.6436-3.5307 0-6.2413 1.543-7.1031 4.5316l3.6975.5143c.27-.672.7506-1.2383 1.3695-1.6142.619-.3759 1.3432-.5411 2.0639-.4709 1.8349 0 2.7801.9175 2.7801 2.5299 0 1.112-1.1954 1.1676-4.1701 1.4735-3.2527.3475-6.3664 1.2927-6.3664 4.9902.0834 3.3083 2.4882 5.0181 5.6853 5.0181zm1.0286-2.7801c-1.6542 0-2.7801-.7367-2.7801-2.1546 0-1.4178 1.39-2.1128 3.0859-2.3492 1.248-.0812 2.4762-.353 3.6419-.8062v1.9322c-.0276.4772-.1514.944-.3641 1.3721s-.5097.8088-.8733 1.1192c-.3636.3103-.7862.5439-1.2424.6867-.4563.1428-.9366.1919-1.4123.1442zm11.8015 2.516h3.9477v-16.486h-3.8921zm1.9878-18.76567c.2975.0208.5962-.01921.8777-.11761.2816-.0984.5402-.25312.76-.45472.2198-.20161.3962-.44587.5186-.7179.1223-.27203.1879-.56612.1928-.86435-.0449-.57566-.3053-1.11319-.7291-1.50528-.4239-.39209-.9801-.60988-1.5575-.60988s-1.1336.21779-1.5574.60988c-.4239.39209-.6843.92962-.7292 1.50528.0253.58018.2793 1.12673.7065 1.52008.4273.39336.9929.6015 1.5732.5789zm9.9805 9.13267c-.0518-.4937.005-.9927.1663-1.462.1614-.4694.4233-.8979.7672-1.2554.345-.3575.763-.6355 1.226-.8144s.959-.2545 1.455-.2214c.456-.0261.913.0486 1.337.2189.424.1702.806.4318 1.118.7662.312.3343.546.7333.686 1.1685.14.4351.183.8958.125 1.3493v9.8555h3.948v-10.4949c0-3.9338-2.28-6.1857-5.741-6.1857-1.042-.0796-2.084.1666-2.98.7044-.897.5379-1.6038 1.3409-2.0241 2.2981h-.1946v-2.7801h-3.7809v16.4165h3.9477zm15.7635 9.6191 2.391-6.6027h9.396l2.391 6.6027h2.141l-8.076-21.94888h-2.197l-8.131 21.89328zm3.044-8.3403 4.031-11.00919h.111l3.962 10.91189zm22.741 8.7434c1.104.0323 2.191-.2758 3.113-.8826.923-.6068 1.637-1.4828 2.044-2.5091h.236v3.0442h1.905v-22.00448h-1.96v8.57658h-.181c-.399-1.0213-1.106-1.8934-2.022-2.496-.917-.6025-1.997-.9058-3.093-.8679-4.17 0-6.951 3.4195-6.951 8.4793s2.85 8.5488 6.965 8.5488zm.236-1.7376c-3.336 0-5.171-2.9747-5.171-6.7973s1.807-6.7139 5.171-6.7139 5.13 2.7801 5.13 6.7139-1.821 6.6861-5.088 6.6861zm12.594 1.3901h1.932v-10.6478c-.036-.5655.045-1.1326.239-1.6651.194-.5324.497-1.0187.889-1.4279.392-.4091.865-.7323 1.389-.9488s1.087-.3218 1.653-.309c.494-.0322.988.0428 1.449.2201.462.1772.879.4523 1.224.8064.345.354.609.7787.774 1.2446s.227.962.181 1.4542v11.1204h1.933v-10.7729c-.045-.5409.027-1.0851.211-1.5957s.476-.9755.856-1.3632c.379-.3878.838-.6892 1.345-.8838s1.049-.2778 1.591-.244c.511-.0371 1.025.0399 1.503.2254.478.1856.909.4751 1.261.8475.353.3725.618.8186.777 1.3062.159.4875.208 1.0043.143 1.513v11.0092h1.946v-10.9953c0-3.6836-1.932-5.6297-5.046-5.6297-1.034-.0718-2.065.1765-2.953.7112-.888.5348-1.59 1.3299-2.01 2.2774h-.139c-.378-.8699-.996-1.6139-1.782-2.1449s-1.708-.827-2.656-.8532c-.948-.0263-1.884.2182-2.698.7049s-1.473 1.1954-1.899 2.043h-.181v-2.5299h-1.89zm26.411 0h1.96v-16.5277h-1.96zm.987-19.25219c.188.00943.377-.01955.553-.08517.177-.06563.339-.16652.475-.29655.137-.13003.245-.28648.319-.45982.075-.17334.113-.35996.113-.54851 0-.38709-.154-.75833-.428-1.03205s-.645-.4275-1.032-.4275-.758.15378-1.032.4275-.428.64496-.428 1.03205c.014.18404.065.36344.149.52776s.2.31026.341.4293.304.2088.48.26405.362.07488.546.05774zm8.048 8.97969c-.04-.6122.05-1.2261.264-1.8011.214-.5751.548-1.0983.978-1.5355.431-.4371.949-.7782 1.521-1.001.572-.2227 1.184-.3219 1.797-.2912.572-.0242 1.142.0742 1.673.2886s1.01.5399 1.405.9545c.395.4147.697.909.885 1.4497.188.5408.259 1.1156.207 1.6858v10.5227h1.946v-10.7451c0-3.8921-2.308-6.005-5.685-6.005-1.006-.0778-2.012.1449-2.89.6399-.879.495-1.591 1.2399-2.045 2.1402h-.181v-2.5577h-1.89v16.4165h1.946z" fill="#fff"/><g fill="#4a6cf7"><path d="m36.3642 14.1506-7.1727-12.05171c-.3644-.63693-.8905-1.166395-1.5251-1.534936s-1.3552-.56310438-2.089-.56404014h-14.2619c-.7409-.00644868-1.47009.18461214-2.11263.55352514s-1.1752.902361-1.54316 1.545451l-7.130942 12.05171c-.347951.6399-.53023284 1.3567-.53023284 2.0851s.18228184 1.4452.53023284 2.0851l7.130942 12.0517c.36796.6431.90062 1.1765 1.54316 1.5454s1.37173.56 2.11263.5535h14.2619c.7325.0005 1.4522-.192 2.0866-.558.6345-.366 1.1613-.8927 1.5275-1.527l7.131-12.0517c.3556-.6386.5457-1.3559.553-2.0868.0072-.7308-.1685-1.4518-.5113-2.0973zm-2.7801 2.6133-7.1727 12.0517c-.0959.174-.2401.3164-.4153.4101-.1751.0938-.3736.1348-.5716.1181h-14.109c-.1962.0057-.3906-.0401-.5637-.1327-.1732-.0927-.319-.229-.4232-.3955l-7.11704-12.0517c-.0892-.1767-.13566-.3719-.13566-.5699s.04646-.3932.13566-.5699l7.13094-12.03786c.0959-.17394.2402-.31638.4153-.41012.1752-.09373.3737-.13475.5716-.1181h14.248c.1963-.00566.3907.04011.5638.13277s.319.22899.4232.39545l7.1309 12.05176c.0937.1771.1344.3776.1171.5773-.0172.1997-.0917.3901-.2144.5486z"/><path d="m24.9376 8.65977h-2.8635c-1.12-.00759-2.198.4254-3.0015 1.20555-.8036.78018-1.2682 1.84498-1.2938 2.96468v3.0442h-3.0998c-1.1199-.0076-2.1979.4254-3.0015 1.2055-.8035.7802-1.2682 1.8449-1.2937 2.9646v2.7801c.0073.5911.2482 1.1553.6702 1.5694.4219.4141.9905.6445 1.5817.6408h2.7801c1.1199.0076 2.1979-.4254 3.0015-1.2056.8035-.7801 1.2682-1.8449 1.2937-2.9646v-2.9886h3.1137c1.12.0076 2.198-.4254 3.0015-1.2055.8036-.7802 1.2682-1.8449 1.2938-2.9646v-2.7801c.0055-.2921-.0466-.5824-.1533-.8544-.1067-.27196-.2659-.52023-.4686-.73064-.2026-.21041-.4447-.37883-.7125-.49564s-.5559-.17972-.848-.18515zm-7.1588 12.23243c-.0036.2976-.0658.5915-.183.865-.1173.2735-.2872.5213-.5002.7291s-.4648.3716-.7411.4821-.5717.1655-.8692.1618h-2.7801c-.0641.0001-.1257-.0243-.1722-.0683-.0466-.044-.0745-.1041-.078-.168v-2.7801c.0036-.2976.0658-.5915.183-.865.1173-.2735.2872-.5212.5002-.7291.213-.2078.4648-.3716.7411-.4821s.5717-.1654.8692-.1618h3.0998zm7.409-7.256c-.0073.6022-.2527 1.177-.6824 1.5989s-1.009.6567-1.6112.653h-3.1137v-3.0442c.0018-.2988.0627-.5942.1791-.8693s.2861-.5245.4993-.7338c.2131-.2093.4656-.3744.7428-.4857.2772-.1114.5737-.1668.8724-.1631h2.8635c.0663 0 .13.0263.1769.0733.0469.0469.0733.1105.0733.1769z" stroke="#4a6cf7" stroke-width=".5"/></g></g></svg>

<svg width="200" height="33" viewBox="0 0 200 33" fill="none" xmlns="http://www.w3.org/2000/svg">
<g clip-path="url(#clip0_663_21)">
<path d="M42.1741 27.1058H46.2191V19.7107H50.5004C55.6714 19.7107 58.382 16.6665 58.382 12.3991C58.382 8.13162 55.6019 5.14302 50.5004 5.14302H42.1602L42.1741 27.1058ZM46.2191 16.4441V8.52083H49.9305C52.9608 8.52083 54.3092 10.1194 54.3092 12.4547C54.3092 14.79 52.9191 16.4441 49.9583 16.4441H46.2191ZM65.6798 5.19862H61.7876V27.1058H65.7493L65.6798 5.19862ZM74.5761 27.4394C75.5625 27.5373 76.5564 27.3512 77.4405 26.903C78.3247 26.4548 79.0623 25.7631 79.5663 24.9095H79.6914V27.1614H83.4863V16.1105C83.4863 11.7736 79.8721 10.4669 76.675 10.4669C73.1443 10.4669 70.4337 12.0099 69.5719 14.9985L73.2694 15.5128C73.5394 14.8408 74.02 14.2745 74.6389 13.8986C75.2579 13.5227 75.9821 13.3575 76.7028 13.4277C78.5377 13.4277 79.4829 14.3452 79.4829 15.9576C79.4829 17.0696 78.2875 17.1252 75.3128 17.4311C72.0601 17.7786 68.9464 18.7238 68.9464 22.4213C69.0298 25.7296 71.4346 27.4394 74.6317 27.4394H74.5761ZM75.6047 24.6593C73.9505 24.6593 72.8246 23.9226 72.8246 22.5047C72.8246 21.0869 74.2146 20.3919 75.9105 20.1555C77.1585 20.0743 78.3867 19.8025 79.5524 19.3493V21.2815C79.5248 21.7587 79.401 22.2255 79.1883 22.6536C78.9756 23.0817 78.6786 23.4624 78.315 23.7728C77.9514 24.0831 77.5288 24.3167 77.0726 24.4595C76.6163 24.6023 76.136 24.6514 75.6603 24.6037L75.6047 24.6593ZM87.4062 27.1753H91.3539V10.6893H87.4618L87.4062 27.1753ZM89.394 8.40963C89.6915 8.43043 89.9902 8.39042 90.2717 8.29202C90.5533 8.19362 90.8119 8.0389 91.0317 7.8373C91.2515 7.63569 91.4279 7.39143 91.5503 7.1194C91.6726 6.84737 91.7382 6.55328 91.7431 6.25505C91.6982 5.67939 91.4378 5.14186 91.014 4.74977C90.5901 4.35768 90.0339 4.13989 89.4565 4.13989C88.8791 4.13989 88.3229 4.35768 87.8991 4.74977C87.4752 5.14186 87.2148 5.67939 87.1699 6.25505C87.1952 6.83523 87.4492 7.38178 87.8764 7.77513C88.3037 8.16849 88.8693 8.37663 89.4496 8.35403L89.394 8.40963ZM99.3745 17.5423C99.3227 17.0486 99.3795 16.5496 99.5408 16.0803C99.7022 15.6109 99.9641 15.1824 100.308 14.8249C100.653 14.4674 101.071 14.1894 101.534 14.0105C101.997 13.8316 102.493 13.756 102.989 13.7891C103.445 13.763 103.902 13.8377 104.326 14.008C104.75 14.1782 105.132 14.4398 105.444 14.7742C105.756 15.1085 105.99 15.5075 106.13 15.9427C106.27 16.3778 106.313 16.8385 106.255 17.292V27.1475H110.203V16.6526C110.203 12.7188 107.923 10.4669 104.462 10.4669C103.42 10.3873 102.378 10.6335 101.482 11.1713C100.585 11.7092 99.8782 12.5122 99.4579 13.4694H99.2633V10.6893H95.4824V27.1058H99.4301L99.3745 17.5423ZM115.138 27.1614L117.529 20.5587H126.925L129.316 27.1614H131.457L123.381 5.21252H121.184L113.053 27.1058L115.138 27.1614ZM118.182 18.8211L122.213 7.81191H122.324L126.286 18.7238L118.182 18.8211ZM140.923 27.5645C142.027 27.5968 143.114 27.2887 144.036 26.6819C144.959 26.0751 145.673 25.1991 146.08 24.1728H146.316V27.217H148.221V5.21252H146.261V13.7891H146.08C145.681 12.7678 144.974 11.8957 144.058 11.2931C143.141 10.6906 142.061 10.3873 140.965 10.4252C136.795 10.4252 134.014 13.8447 134.014 18.9045C134.014 23.9643 136.864 27.4533 140.979 27.4533L140.923 27.5645ZM141.159 25.8269C137.823 25.8269 135.988 22.8522 135.988 19.0296C135.988 15.207 137.795 12.3157 141.159 12.3157C144.523 12.3157 146.289 15.0958 146.289 19.0296C146.289 22.9634 144.468 25.7157 141.201 25.7157L141.159 25.8269ZM153.753 27.217H155.685V16.5692C155.649 16.0037 155.73 15.4366 155.924 14.9041C156.118 14.3717 156.421 13.8854 156.813 13.4762C157.205 13.0671 157.678 12.7439 158.202 12.5274C158.726 12.3109 159.289 12.2056 159.855 12.2184C160.349 12.1862 160.843 12.2612 161.304 12.4385C161.766 12.6157 162.183 12.8908 162.528 13.2449C162.873 13.5989 163.137 14.0236 163.302 14.4895C163.467 14.9554 163.529 15.4515 163.483 15.9437V27.0641H165.416V16.2912C165.371 15.7503 165.443 15.2061 165.627 14.6955C165.811 14.1849 166.103 13.72 166.483 13.3323C166.862 12.9445 167.321 12.6431 167.828 12.4485C168.335 12.2539 168.877 12.1707 169.419 12.2045C169.93 12.1674 170.444 12.2444 170.922 12.4299C171.4 12.6155 171.831 12.905 172.183 13.2774C172.536 13.6499 172.801 14.096 172.96 14.5836C173.119 15.0711 173.168 15.5879 173.103 16.0966V27.1058H175.049V16.1105C175.049 12.4269 173.117 10.4808 170.003 10.4808C168.969 10.409 167.938 10.6573 167.05 11.192C166.162 11.7268 165.46 12.5219 165.04 13.4694H164.901C164.523 12.5995 163.905 11.8555 163.119 11.3245C162.333 10.7935 161.411 10.4975 160.463 10.4713C159.515 10.445 158.579 10.6895 157.765 11.1762C156.951 11.6629 156.292 12.3716 155.866 13.2192H155.685V10.6893H153.795L153.753 27.217ZM180.164 27.217H182.124V10.6893H180.164V27.217ZM181.151 7.96481C181.339 7.97424 181.528 7.94526 181.704 7.87964C181.881 7.81401 182.043 7.71312 182.179 7.58309C182.316 7.45306 182.424 7.29661 182.498 7.12327C182.573 6.94993 182.611 6.76331 182.611 6.57476C182.611 6.18767 182.457 5.81643 182.183 5.54271C181.909 5.26899 181.538 5.11521 181.151 5.11521C180.764 5.11521 180.393 5.26899 180.119 5.54271C179.845 5.81643 179.691 6.18767 179.691 6.57476C179.705 6.7588 179.756 6.9382 179.84 7.10252C179.924 7.26684 180.04 7.41278 180.181 7.53182C180.322 7.65086 180.485 7.74062 180.661 7.79587C180.837 7.85112 181.023 7.87075 181.207 7.85361L181.151 7.96481ZM189.199 16.9445C189.159 16.3323 189.249 15.7184 189.463 15.1434C189.677 14.5683 190.011 14.0451 190.441 13.6079C190.872 13.1708 191.39 12.8297 191.962 12.6069C192.534 12.3842 193.146 12.285 193.759 12.3157C194.331 12.2915 194.901 12.3899 195.432 12.6043C195.963 12.8187 196.442 13.1442 196.837 13.5588C197.232 13.9735 197.534 14.4678 197.722 15.0085C197.91 15.5493 197.981 16.1241 197.929 16.6943V27.217H199.875V16.4719C199.875 12.5798 197.567 10.4669 194.19 10.4669C193.184 10.3891 192.178 10.6118 191.3 11.1068C190.421 11.6018 189.709 12.3467 189.255 13.247H189.074V10.6893H187.184V27.1058H189.13L189.199 16.9445Z" fill="white"/>
<path d="M36.3642 14.1506L29.1915 2.09889C28.8271 1.46196 28.301 0.932495 27.6664 0.563954C27.0318 0.195413 26.3112 0.000849615 25.5774 -8.61431e-05H11.3155C10.5746 -0.00653482 9.84541 0.184526 9.20287 0.553439C8.56033 0.922352 8.02767 1.4558 7.65971 2.09889L0.528768 14.1506C0.180817 14.7905 -0.00146484 15.5073 -0.00146484 16.2357C-0.00146484 16.9641 0.180817 17.6809 0.528768 18.3208L7.65971 30.3725C8.02767 31.0156 8.56033 31.549 9.20287 31.9179C9.84541 32.2868 10.5746 32.4779 11.3155 32.4714H25.5774C26.3099 32.4719 27.0296 32.2794 27.664 31.9134C28.2985 31.5474 28.8253 31.0207 29.1915 30.3864L36.3225 18.3347C36.6781 17.6961 36.8682 16.9788 36.8755 16.2479C36.8827 15.5171 36.707 14.7961 36.3642 14.1506ZM33.5841 16.7639L26.4114 28.8156C26.3155 28.9896 26.1713 29.132 25.9961 29.2257C25.821 29.3195 25.6225 29.3605 25.4245 29.3438H11.3155C11.1193 29.3495 10.9249 29.3037 10.7518 29.2111C10.5786 29.1184 10.4328 28.9821 10.3286 28.8156L3.21156 16.7639C3.12236 16.5872 3.0759 16.392 3.0759 16.194C3.0759 15.996 3.12236 15.8008 3.21156 15.6241L10.3425 3.58624C10.4384 3.4123 10.5827 3.26986 10.7578 3.17612C10.933 3.08239 11.1315 3.04137 11.3294 3.05802H25.5774C25.7737 3.05236 25.9681 3.09813 26.1412 3.19079C26.3143 3.28345 26.4602 3.41978 26.5644 3.58624L33.6953 15.638C33.789 15.8151 33.8297 16.0156 33.8124 16.2153C33.7952 16.415 33.7207 16.6054 33.598 16.7639H33.5841Z" fill="#4A6CF7"/>
<path d="M24.9376 8.65977H22.0741C20.9541 8.65218 19.8761 9.08517 19.0726 9.86532C18.269 10.6455 17.8044 11.7103 17.7788 12.83V15.8742H14.679C13.5591 15.8666 12.4811 16.2996 11.6775 17.0797C10.874 17.8599 10.4093 18.9246 10.3838 20.0443V22.8244C10.3911 23.4155 10.632 23.9797 11.054 24.3938C11.4759 24.8079 12.0445 25.0383 12.6357 25.0346H15.4158C16.5357 25.0422 17.6137 24.6092 18.4173 23.829C19.2208 23.0489 19.6855 21.9841 19.711 20.8644V17.8758H22.8247C23.9447 17.8834 25.0227 17.4504 25.8262 16.6703C26.6298 15.8901 27.0944 14.8254 27.12 13.7057V10.9256C27.1255 10.6335 27.0734 10.3432 26.9667 10.0712C26.86 9.79924 26.7008 9.55097 26.4981 9.34056C26.2955 9.13015 26.0534 8.96173 25.7856 8.84492C25.5178 8.72811 25.2297 8.6652 24.9376 8.65977ZM17.7788 20.8922C17.7752 21.1898 17.713 21.4837 17.5958 21.7572C17.4785 22.0307 17.3086 22.2785 17.0956 22.4863C16.8826 22.6941 16.6308 22.8579 16.3545 22.9684C16.0782 23.0789 15.7828 23.1339 15.4853 23.1302H12.7052C12.6411 23.1303 12.5795 23.1059 12.533 23.0619C12.4864 23.0179 12.4585 22.9578 12.455 22.8939V20.1138C12.4586 19.8162 12.5208 19.5223 12.638 19.2488C12.7553 18.9753 12.9252 18.7276 13.1382 18.5197C13.3512 18.3119 13.603 18.1481 13.8793 18.0376C14.1556 17.9271 14.451 17.8722 14.7485 17.8758H17.8483L17.7788 20.8922ZM25.1878 13.6362C25.1805 14.2384 24.9351 14.8132 24.5054 15.2351C24.0757 15.657 23.4964 15.8918 22.8942 15.8881H19.7805V12.8439C19.7823 12.5451 19.8432 12.2497 19.9596 11.9746C20.076 11.6995 20.2457 11.4501 20.4589 11.2408C20.672 11.0315 20.9245 10.8664 21.2017 10.7551C21.4789 10.6437 21.7754 10.5883 22.0741 10.592H24.9376C25.0039 10.592 25.0676 10.6183 25.1145 10.6653C25.1614 10.7122 25.1878 10.7758 25.1878 10.8422V13.6362Z" fill="#4A6CF7" stroke="#4A6CF7" stroke-width="0.5"/>
</g>
<defs>
<clipPath id="clip0_663_21">
<rect width="200" height="33" fill="white"/>
</clipPath>
</defs>
</svg>
